X: 23127
T: Laurie And Madeleine Ryan
R: reel
M: 4/4
K: Gmajor
|:DBBG FGGD-|DBAG FG G2|ceec dBGB|GAAD ADBA|
DBBG FGGD|DBAG FG G2|c3e dBGB|1 AGAB GAAD:|2 AGAD- DBAG||
|:deeg ed B2-|BABd GAAG|Bd eAAG Bd|deeg ed B2-|
BABd GAAG|BA G2 GABd|eggd ed B2|BABd DAAD|
BD BGGA Bd|deeg ed B2|BABd GAAG|BA G2 GABd|
eggd ed B2|BABd GAAG|BA G2 G4||

